X:264
T:Frank Palmer
C:O'Carolan
N:For the dance "Algorhythms" by Orly Krasner
S:Colin Hume's website,  colinhume.com  - chords can also be printed below the stave.
Q:3/8=110
M:6/8
L:1/8
K:G
P:A
|: "G"D2G GAG | "D"FDE FGA | "G"Bcd "C"efg | "D"f3 d3 |
"C"c2e ege | "G"B2d ded | "Am"cBc "D"dFD | "G"G3 G3 :|
P:B
|: "G"B2c ded | "D"A2B "Am"cdc | "C"G2A "G"BcB | "A"A2G "D"F2D |
"C"GEC CEC | "G"G3 G,3 | "D"AFD DFD | "G"d3 B3 |
"C"cde "Am"efg | "D"fad "G"BGB | "Am"c/d/eA "D"FDF | "G"G3 G3 :|

